arkscan/icons/7b.svg

<svg viewBox="0 0 20 12" fill="none" xmlns="http://www.w3.org/2000/svg">
<path d="M4.09961 11.75H0.849609L5.59961 2.4H0.0996094V0H8.54961V2.2L4.09961 11.75ZM19.8996 7.6C19.8996 8.2 19.7996 8.75 19.6496 9.25C19.4496 9.8 19.1996 10.25 18.8996 10.65C18.5496 11.05 18.1496 11.35 17.6996 11.6C17.1996 11.85 16.6496 11.95 16.0496 11.95C15.4996 11.95 14.9996 11.85 14.4996 11.6C13.9996 11.35 13.6496 11.05 13.3996 10.6H13.3496V11.7H10.8496V1.6L13.4996 0V4.35H13.5496C13.7996 4.05 14.0996 3.8 14.4996 3.6C14.8996 3.35 15.4496 3.25 16.0496 3.25C16.6496 3.25 17.1996 3.35 17.6496 3.6C18.1496 3.85 18.5496 4.15 18.8496 4.55C19.1996 4.95 19.4496 5.4 19.5996 5.95C19.8496 6.45 19.8996 7 19.8996 7.6ZM17.2996 7.6C17.2996 7.35 17.2496 7.05 17.1496 6.8C17.0496 6.55 16.9496 6.3 16.7996 6.15C16.6496 5.95 16.4496 5.8 16.1996 5.65C15.9496 5.55 15.6996 5.45 15.3496 5.45C15.0496 5.45 14.7496 5.5 14.5496 5.65C14.2996 5.75 14.0996 5.95 13.8996 6.15C13.7496 6.35 13.5996 6.6 13.4996 6.85C13.3996 7.1 13.3496 7.35 13.3496 7.65C13.3496 7.9 13.3996 8.2 13.4996 8.45C13.5996 8.7 13.7496 8.95 13.8996 9.15C14.0996 9.35 14.2996 9.5 14.5496 9.65C14.7996 9.75 15.0496 9.85 15.3496 9.85C15.6496 9.85 15.9496 9.8 16.1996 9.65C16.4496 9.55 16.6496 9.35 16.7996 9.15C16.9496 8.95 17.0996 8.7 17.1496 8.45C17.2996 8.1 17.2996 7.85 17.2996 7.6Z" fill="#3170D1"/>
</svg>

<svg viewBox="0 0 20 12" fill="none" xmlns="http://www.w3.org/2000/svg"><path d="M4.1 11.75H.85L5.6 2.4H.1V0h8.45v2.2L4.1 11.75ZM19.9 7.6c0 .6-.1 1.15-.25 1.65-.2.55-.45 1-.75 1.4-.35.4-.75.7-1.2.95-.5.25-1.05.35-1.65.35-.55 0-1.05-.1-1.55-.35-.5-.25-.85-.55-1.1-1h-.05v1.1h-2.5V1.6L13.5 0v4.35h.05c.25-.3.55-.55.95-.75.4-.25.95-.35 1.55-.35.6 0 1.15.1 1.6.35.5.25.9.55 1.2.95.35.4.6.85.75 1.4.25.5.3 1.05.3 1.65Zm-2.6 0c0-.25-.05-.55-.15-.8-.1-.25-.2-.5-.35-.65-.15-.2-.35-.35-.6-.5-.25-.1-.5-.2-.85-.2-.3 0-.6.05-.8.2-.25.1-.45.3-.65.5-.15.2-.3.45-.4.7-.1.25-.15.5-.15.8 0 .25.05.55.15.8.1.25.25.5.4.7.2.2.4.35.65.5.25.1.5.2.8.2.3 0 .6-.05.85-.2.25-.1.45-.3.6-.5.15-.2.3-.45.35-.7.15-.35.15-.6.15-.85Z" fill="#3170D1"/></svg>
